img/phone-byn.svg

<svg fill="none" height="18" viewBox="0 0 18 18" width="18" xmlns="http://www.w3.org/2000/svg" xmlns:xlink="http://www.w3.org/1999/xlink"><clipPath id="a"><path d="m0 0h18v18h-18z"/></clipPath><g clip-path="url(#a)"><path d="m5.27983 12.8074s2.50574 2.5956 5.86467 3.8978c.9475.3907 3.0177.9071 3.9562.1527 0 0 2.3351-1.7154 2.1375-2.6449 0-.6512-.5927-1.1227-1.3651-1.922-.5523-.5703-1.0822-1.1765-1.5043-1.4415-.3054-.1931-.4042-.1751-.7365-.2155-.8353-.027-2.1196 1.9938-2.5147 1.895-1.56724-.5299-3.27365-2.2767-3.27365-2.2767l.00449.0045s-1.74684-1.71093-2.27672-3.27365c-.0988-.39068 1.91747-1.67948 1.89502-2.51472-.04042-.33231-.02694-.4311-.21555-.73646-.26494-.42211-.87117-.952-1.44147-1.50434-.79933-.77238-1.27084-1.365135-1.92197-1.365135-.92955-.202075-2.64944 2.133025-2.64944 2.133025-.758906.93404-.238 3.00868.15268 3.95619 1.30227 3.35899 3.89782 5.86469 3.89782 5.86469" stroke="#fff" stroke-linejoin="round" stroke-miterlimit="10" stroke-width="1.1"/></g></svg>

<svg width="18" height="18" viewBox="0 0 18 18" fill="none" xmlns="http://www.w3.org/2000/svg">
<g clip-path="url(#clip0_905_1097)">
<path d="M5.27983 12.8074C5.27983 12.8074 7.78557 15.403 11.1445 16.7052C12.092 17.0959 14.1622 17.6123 15.1007 16.8579C15.1007 16.8579 17.4358 15.1425 17.2382 14.213C17.2382 13.5618 16.6455 13.0903 15.8731 12.291C15.3208 11.7207 14.7909 11.1145 14.3688 10.8495C14.0634 10.6564 13.9646 10.6744 13.6323 10.634C12.797 10.607 11.5127 12.6278 11.1176 12.529C9.55036 11.9991 7.84395 10.2523 7.84395 10.2523L7.84844 10.2568C7.84844 10.2568 6.1016 8.54587 5.57172 6.98315C5.47292 6.59247 7.48919 5.30367 7.46674 4.46843C7.42632 4.13612 7.4398 4.03733 7.25119 3.73197C6.98625 3.30986 6.38002 2.77997 5.80972 2.22763C5.01039 1.45525 4.53888 0.862495 3.88775 0.862495C2.9582 0.66042 1.23831 2.99552 1.23831 2.99552C0.479404 3.92956 1.00031 6.0042 1.39099 6.95171C2.69326 10.3107 5.28881 12.8164 5.28881 12.8164" stroke="white" stroke-width="1.1" stroke-miterlimit="10" stroke-linejoin="round"/>
</g>
<defs>
<clipPath id="clip0_905_1097">
<rect width="18" height="18" fill="white"/>
</clipPath>
</defs>
</svg>
